X:1
T:Romance de Amor
T:Romance de Amor
T:(A Section Melody with Bass) 
T:Anonymous
T:Musical Lives Guitar Orchestra | www.MusicalLives.com
C:Anonymous
Z:Musical Lives Guitar Orchestra | www.MusicalLives.com
%%score ( 1 2 )
L:1/8
Q:1/4=100
M:3/4
K:G
V:1 treble-8 nm="Classical Guitar" snm="Guit."
V:2 treble-8 
V:1
"^A""^VII" !4!!a
!b2 b2 b2 | b2"^V" !2!a2"^III" !2!g2 | g2"^II" !1!f2 !0!e2 | e2 !1!!(4)!g2 !4!b2 | %4
"^XII" !4!e'2 e'2 e'2 | !4!e'2"^X" !4!d'2"^VIII" !4!c'2 | c'2 !3!b2 !1!a2 | a2 !3!b2 !4!c'2 | %8
"^BVII6" !1!b2 !3!c'2 b2 | !4!^d'2 !3!c'2 !1!b2 | !4!b2 !2!a2 !2!g2 | g2 !1!f2 !0!e2 | %12
"^2nd fret\nkeep for 4 bars\n" !3!f2 f2 f2 | f2 !4!g2 f2 | %14
"_2nd fret" !0!e2"_2nd fret" e2"_3rd fret" e2 | !a!e6 :| %16
V:2
 !0!!p!E,6 | E,6 | E,6 | E,6 | E,6 | E,6 | !0!A,6 | A,6 | !1!B,6 | B,6 | !0!E,6 | E,6 | !1!B,6 | %13
 B,6 | !2!!p!E2 !1!!p!B,2 !3!!p!G,2 | !0!!p!E,6 :| %16

